Newaita-dark/apps/48/mysql-workbench.svg

<svg height="48pt" viewBox="0 0 48 48" width="48pt" xmlns="http://www.w3.org/2000/svg" xmlns:xlink="http://www.w3.org/1999/xlink"><linearGradient id="a" gradientUnits="userSpaceOnUse" x1="23.81478" x2="23.81478" y1="42.0509045" y2="44.03547050005"><stop offset="0" stop-opacity=".27451"/><stop offset="1" stop-opacity="0"/></linearGradient><linearGradient id="b"><stop offset="0" stop-opacity=".313725"/><stop offset=".222222" stop-opacity=".27451"/><stop offset="1" stop-opacity="0"/></linearGradient><radialGradient id="c" cx="450.908936" cy="189.579361" gradientTransform="matrix(.00000026 -.117199 -.210958 -.00000015 79.684395 95.392999)" gradientUnits="userSpaceOnUse" r="21.166656" xlink:href="#b"/><radialGradient id="d" cx="450.908936" cy="189.579361" gradientTransform="matrix(-.00000026 .117199 .210958 .00000015 -31.80678 -11.291218)" gradientUnits="userSpaceOnUse" r="21.166656" xlink:href="#b"/><radialGradient id="e" cx="450.908936" cy="189.579361" gradientTransform="matrix(-.00000026 -.117199 .210958 -.00000015 -31.80678 95.392999)" gradientUnits="userSpaceOnUse" r="21.166656" xlink:href="#b"/><radialGradient id="f" cx="450.908936" cy="189.579361" gradientTransform="matrix(.00000026 .117199 -.210958 .00000015 79.684393 -11.291219)" gradientUnits="userSpaceOnUse" r="21.166656" xlink:href="#b"/><linearGradient id="g" gradientUnits="userSpaceOnUse" x1="23.814786" x2="23.814786" y1="42.0509015" y2="4.34415649995"><stop offset="0" stop-color="#42a5f5"/><stop offset="1" stop-color="#64b5f6"/></linearGradient><linearGradient id="h" gradientUnits="userSpaceOnUse" x1="679.999985" x2="719.999985" y1="175.118111" y2="1695.118111"><stop offset="0" stop-color="#1976d2"/><stop offset="1" stop-color="#1e88e5"/></linearGradient><path d="m7.691406 42.050781h32.496094v1.984375h-32.496094zm0 0" fill="url(#a)"/><path d="m40.1875 42.050781h3.96875v-1.984375h-3.96875zm0 0" fill="url(#c)"/><path d="m7.691406 42.050781h-3.96875v1.984375h3.96875zm0 0" fill="url(#d)"/><path d="m7.691406 42.050781h-3.96875v-1.984375h3.96875zm0 0" fill="url(#e)"/><path d="m40.1875 42.050781h3.96875v1.984375h-3.96875zm0 0" fill="url(#f)"/><path d="m5.457031 4.34375h36.714844c.820313 0 1.488281.667969 1.488281 1.488281v34.730469c0 .820312-.667968 1.488281-1.488281 1.488281h-36.714844c-.820312 0-1.488281-.667969-1.488281-1.488281v-34.730469c0-.820312.667969-1.488281 1.488281-1.488281zm0 0" fill="url(#g)"/><path d="m523.414611 493.181276c-45.979864.31493-62.828649 65.033163-37.791669 99.20313 35.272224 44.562676 76.055733 87.550699 89.912679 144.868063 16.848785 58.892017 24.407119 37.791669 80.14983 164.393759 24.249654 73.536289-4.723958 111.642888 4.251563 213.522928 4.723958 60.309204-19.998091 199.980913 59.994274 199.980913 39.996183 0 39.996183-219.979004 68.182469-160.299661 78.417712 96.998616 308.946891 379.018943 453.814954 359.020852-37.319273-157.937682-132.27084-279.185952-190.0606-411.456792-52.12101-92.589589-102.982297-186.75383-164.551224-273.359737-65.348094-77.787851-147.230043-147.859904-247.377964-173.999141-56.372573-15.903994-69.442192-30.07587-109.91077-89.912678-19.683161-40.153648-4.094098-38.42153 19.998091-30.07587 75.898268 31.650523 59.994274 39.996183 159.984731 79.992365 139.986639 59.994274 210.058691 99.990457 270.052965 179.982822 74.638546 92.904519 239.977096 400.119292 279.973279 500.109749 48.971704 134.790285 65.348094 289.578661 76.84306 399.961826h130.066326c-24.092189-75.740802-145.812855-262.179701-126.917021-299.97137 39.996183-39.996182 108.965978-45.664933 151.639071-54.325523 55.270315-5.196355-32.122919-65.663025-50.703822-83.456602-52.435941-47.397051-119.831083-72.119101-177.148447-111.800353-163.763898-310.364079-190.847927-442.634919-403.740994-550.49864-53.065801-33.855037-158.252612-31.650522-200.138378-59.994274-49.286635-19.683161-92.274658-42.043231-136.522403-41.885766zm0 0" fill="url(#h)" stroke="#212121" stroke-linecap="square" stroke-linejoin="bevel" stroke-width="11.338583" transform="scale(.0248071)"/><path d="m5.457031 4.464844c-.824219 0-1.488281.664062-1.488281 1.488281v.25c0-.824219.664062-1.488281 1.488281-1.488281h36.714844c.824219 0 1.488281.664062 1.488281 1.488281v-.25c0-.824219-.664062-1.488281-1.488281-1.488281zm0 0" fill="#fff" fill-opacity=".392157"/><path d="m5.457031 41.925781c-.824219 0-1.488281-.664062-1.488281-1.488281v-.246094c0 .824219.664062 1.488282 1.488281 1.488282h36.714844c.824219 0 1.488281-.664063 1.488281-1.488282v.246094c0 .824219-.664062 1.488281-1.488281 1.488281zm0 0" fill="#030303" fill-opacity=".235294"/><path d="m5.457031 4.203125c-.898437 0-1.628906.730469-1.628906 1.628906v34.730469c0 .898438.730469 1.628906 1.628906 1.628906h36.714844c.898437 0 1.628906-.730468 1.628906-1.628906v-34.730469c0-.898437-.730469-1.628906-1.628906-1.628906zm0 .28125h36.714844c.75 0 1.347656.597656 1.347656 1.347656v34.730469c0 .75-.597656 1.347656-1.347656 1.347656h-36.714844c-.75 0-1.347656-.597656-1.347656-1.347656v-34.730469c0-.75.597656-1.347656 1.347656-1.347656zm0 0" fill="#212121"/></svg>

<?xml version="1.0" encoding="UTF-8"?>
<svg xmlns="http://www.w3.org/2000/svg" xmlns:xlink="http://www.w3.org/1999/xlink" width="48pt" height="48pt" viewBox="0 0 48 48" version="1.1">
<defs>
<linearGradient id="linear0" gradientUnits="userSpaceOnUse" x1="254" y1="233.5" x2="254" y2="254.666672" gradientTransform="matrix(0.093759,0,0,0.093759,-0.00000572259,20.158178)">
<stop offset="0" style="stop-color:rgb(0%,0%,0%);stop-opacity:0.27451;"/>
<stop offset="1" style="stop-color:rgb(0%,0%,0%);stop-opacity:0;"/>
</linearGradient>
<radialGradient id="radial0" gradientUnits="userSpaceOnUse" cx="450.908936" cy="189.579361" fx="450.908936" fy="189.579361" r="21.166656" gradientTransform="matrix(0.000000261256,-0.117199,-0.210958,-0.000000152308,79.684395,95.392999)">
<stop offset="0" style="stop-color:rgb(0%,0%,0%);stop-opacity:0.313725;"/>
<stop offset="0.222222" style="stop-color:rgb(0%,0%,0%);stop-opacity:0.27451;"/>
<stop offset="1" style="stop-color:rgb(0%,0%,0%);stop-opacity:0;"/>
</radialGradient>
<radialGradient id="radial1" gradientUnits="userSpaceOnUse" cx="450.908936" cy="189.579361" fx="450.908936" fy="189.579361" r="21.166656" gradientTransform="matrix(-0.000000261256,0.117199,0.210958,0.000000152308,-31.80678,-11.291218)">
<stop offset="0" style="stop-color:rgb(0%,0%,0%);stop-opacity:0.313725;"/>
<stop offset="0.222222" style="stop-color:rgb(0%,0%,0%);stop-opacity:0.27451;"/>
<stop offset="1" style="stop-color:rgb(0%,0%,0%);stop-opacity:0;"/>
</radialGradient>
<radialGradient id="radial2" gradientUnits="userSpaceOnUse" cx="450.908936" cy="189.579361" fx="450.908936" fy="189.579361" r="21.166656" gradientTransform="matrix(-0.000000261256,-0.117199,0.210958,-0.000000152308,-31.80678,95.392999)">
<stop offset="0" style="stop-color:rgb(0%,0%,0%);stop-opacity:0.313725;"/>
<stop offset="0.222222" style="stop-color:rgb(0%,0%,0%);stop-opacity:0.27451;"/>
<stop offset="1" style="stop-color:rgb(0%,0%,0%);stop-opacity:0;"/>
</radialGradient>
<radialGradient id="radial3" gradientUnits="userSpaceOnUse" cx="450.908936" cy="189.579361" fx="450.908936" fy="189.579361" r="21.166656" gradientTransform="matrix(0.000000261256,0.117199,-0.210958,0.000000152308,79.684393,-11.291219)">
<stop offset="0" style="stop-color:rgb(0%,0%,0%);stop-opacity:0.313725;"/>
<stop offset="0.222222" style="stop-color:rgb(0%,0%,0%);stop-opacity:0.27451;"/>
<stop offset="1" style="stop-color:rgb(0%,0%,0%);stop-opacity:0;"/>
</radialGradient>
<linearGradient id="linear1" gradientUnits="userSpaceOnUse" x1="254" y1="233.5" x2="254" y2="-168.666672" gradientTransform="matrix(0.093759,0,0,0.093759,0,20.158175)">
<stop offset="0" style="stop-color:rgb(25.882353%,64.705882%,96.078431%);stop-opacity:1;"/>
<stop offset="1" style="stop-color:rgb(39.215686%,70.980392%,96.470588%);stop-opacity:1;"/>
</linearGradient>
<linearGradient id="linear2" gradientUnits="userSpaceOnUse" x1="759.999939" y1="302.605469" x2="799.999939" y2="1822.605469" gradientTransform="matrix(1,0,0,1,-79.999954,-127.487358)">
<stop offset="0" style="stop-color:rgb(9.803922%,46.27451%,82.352941%);stop-opacity:1;"/>
<stop offset="1" style="stop-color:rgb(11.764706%,53.333333%,89.803922%);stop-opacity:1;"/>
</linearGradient>
</defs>
<g id="surface1">
<path style=" stroke:none;fill-rule:nonzero;fill:url(#linear0);" d="M 7.691406 42.050781 L 40.1875 42.050781 L 40.1875 44.035156 L 7.691406 44.035156 Z M 7.691406 42.050781 "/>
<path style=" stroke:none;fill-rule:nonzero;fill:url(#radial0);" d="M 40.1875 42.050781 L 44.15625 42.050781 L 44.15625 40.066406 L 40.1875 40.066406 Z M 40.1875 42.050781 "/>
<path style=" stroke:none;fill-rule:nonzero;fill:url(#radial1);" d="M 7.691406 42.050781 L 3.722656 42.050781 L 3.722656 44.035156 L 7.691406 44.035156 Z M 7.691406 42.050781 "/>
<path style=" stroke:none;fill-rule:nonzero;fill:url(#radial2);" d="M 7.691406 42.050781 L 3.722656 42.050781 L 3.722656 40.066406 L 7.691406 40.066406 Z M 7.691406 42.050781 "/>
<path style=" stroke:none;fill-rule:nonzero;fill:url(#radial3);" d="M 40.1875 42.050781 L 44.15625 42.050781 L 44.15625 44.035156 L 40.1875 44.035156 Z M 40.1875 42.050781 "/>
<path style=" stroke:none;fill-rule:nonzero;fill:url(#linear1);" d="M 5.457031 4.34375 L 42.171875 4.34375 C 42.992188 4.34375 43.660156 5.011719 43.660156 5.832031 L 43.660156 40.5625 C 43.660156 41.382812 42.992188 42.050781 42.171875 42.050781 L 5.457031 42.050781 C 4.636719 42.050781 3.96875 41.382812 3.96875 40.5625 L 3.96875 5.832031 C 3.96875 5.011719 4.636719 4.34375 5.457031 4.34375 Z M 5.457031 4.34375 "/>
<path style="fill-rule:nonzero;fill:url(#linear2);stroke-width:11.338583;stroke-linecap:square;stroke-linejoin:bevel;stroke:rgb(12.941177%,12.941177%,12.941177%);stroke-opacity:1;stroke-miterlimit:4;" d="M 523.414611 493.181276 C 477.434747 493.496206 460.585962 558.214439 485.622942 592.384406 C 520.895166 636.947082 561.678675 679.935105 575.535621 737.252469 C 592.384406 796.144486 599.94274 775.044138 655.685451 901.646228 C 679.935105 975.182517 650.961493 1013.289116 659.937014 1115.169156 C 664.660972 1175.47836 639.938923 1315.150069 719.931288 1315.150069 C 759.927471 1315.150069 759.927471 1095.171065 788.113757 1154.850408 C 866.531469 1251.849024 1097.060648 1533.869351 1241.928711 1513.87126 C 1204.609438 1355.933578 1109.657871 1234.685308 1051.868111 1102.414468 C 999.747101 1009.824879 948.885814 915.660638 887.316887 829.054731 C 821.968793 751.26688 740.086844 681.194827 639.938923 655.05559 C 583.56635 639.151596 570.496731 624.97972 530.028153 565.142912 C 510.344992 524.989264 525.934055 526.721382 550.026244 535.067042 C 625.924512 566.717565 610.020518 575.063225 710.010975 615.059407 C 849.997614 675.053681 920.069666 715.049864 980.06394 795.042229 C 1054.702486 887.946748 1220.041036 1195.161521 1260.037219 1295.151978 C 1309.008923 1429.942263 1325.385313 1584.730639 1336.880279 1695.113804 L 1466.946605 1695.113804 C 1442.854416 1619.373002 1321.13375 1432.934103 1340.029584 1395.142434 C 1380.025767 1355.146252 1448.995562 1349.477501 1491.668655 1340.816911 C 1546.93897 1335.620556 1459.545736 1275.153886 1440.964833 1257.360309 C 1388.528892 1209.963258 1321.13375 1185.241208 1263.816386 1145.559956 C 1100.052488 835.195877 1072.968459 702.925037 860.075392 595.061316 C 807.009591 561.206279 701.82278 563.410794 659.937014 535.067042 C 610.650379 515.383881 567.662356 493.023811 523.414611 493.181276 Z M 523.414611 493.181276 " transform="matrix(0.0248071,0,0,0.0248071,0,0)"/>
<path style=" stroke:none;fill-rule:nonzero;fill:rgb(100%,100%,100%);fill-opacity:0.392157;" d="M 5.457031 4.464844 C 4.632812 4.464844 3.96875 5.128906 3.96875 5.953125 L 3.96875 6.203125 C 3.96875 5.378906 4.632812 4.714844 5.457031 4.714844 L 42.171875 4.714844 C 42.996094 4.714844 43.660156 5.378906 43.660156 6.203125 L 43.660156 5.953125 C 43.660156 5.128906 42.996094 4.464844 42.171875 4.464844 Z M 5.457031 4.464844 "/>
<path style=" stroke:none;fill-rule:nonzero;fill:rgb(1.176471%,1.176471%,1.176471%);fill-opacity:0.235294;" d="M 5.457031 41.925781 C 4.632812 41.925781 3.96875 41.261719 3.96875 40.4375 L 3.96875 40.191406 C 3.96875 41.015625 4.632812 41.679688 5.457031 41.679688 L 42.171875 41.679688 C 42.996094 41.679688 43.660156 41.015625 43.660156 40.191406 L 43.660156 40.4375 C 43.660156 41.261719 42.996094 41.925781 42.171875 41.925781 Z M 5.457031 41.925781 "/>
<path style=" stroke:none;fill-rule:nonzero;fill:rgb(12.941177%,12.941177%,12.941177%);fill-opacity:1;" d="M 5.457031 4.203125 C 4.558594 4.203125 3.828125 4.933594 3.828125 5.832031 L 3.828125 40.5625 C 3.828125 41.460938 4.558594 42.191406 5.457031 42.191406 L 42.171875 42.191406 C 43.070312 42.191406 43.800781 41.460938 43.800781 40.5625 L 43.800781 5.832031 C 43.800781 4.933594 43.070312 4.203125 42.171875 4.203125 Z M 5.457031 4.484375 L 42.171875 4.484375 C 42.921875 4.484375 43.519531 5.082031 43.519531 5.832031 L 43.519531 40.5625 C 43.519531 41.3125 42.921875 41.910156 42.171875 41.910156 L 5.457031 41.910156 C 4.707031 41.910156 4.109375 41.3125 4.109375 40.5625 L 4.109375 5.832031 C 4.109375 5.082031 4.707031 4.484375 5.457031 4.484375 Z M 5.457031 4.484375 "/>
</g>
</svg>
